X:1
T:Harre meine Seele
T:César Malan
T:Johann Friedrich Räder
T:Harre meine Seele
T:CPDL - Creative Commons Attribution Non Commercial 3.0
C:César Malan
Z:Johann Friedrich Räder
Z:CPDL - Creative Commons Attribution Non Commercial 3.0
%%score [ ( 1 2 ) ( 3 4 ) ]
L:1/8
Q:1/4=80
M:4/4
K:F
V:1 treble nm="Sopran\nAlt"
V:2 treble 
V:3 bass nm="Tenor\nBass"
V:4 bass 
V:1
"^Langsam und getragen"!p!!<(! c3 c d2!<)! c2 |!>(! A4 F4!>)! |!mf!!<(! G4 A3!<)! B | c6 z2 | %4
w: 1\-2.  Har- re, mei- ne|See- le,|har- re des|Herrn!|
w: ||||
!mf! c3!<(! c d2 c2!<)! |!>(! A4 F4!>)! |!f! G3 G B2 E2 |!>(! F6!>)!"^" z2 |: %8
w: Al- les ihm be-|feh- le,|hilft er doch so|gern!|
w: ||||
!f!"^Soli; Wiederholung Tutti"!<(! B4 B2!<)! A2 | !^!G6 z2 |!f! !^!c3 d c2 B2 | !^!A6 z2 | %12
w: 1.~  Sei un- ver-|zagt,|bald der Mor- gen|tagt,|
w: 2.~Wenn al- les|bricht,|Gott ver- lässt uns|nicht;|
!mf! =B3!<(! B d2!<)! d2 |!f!!>(! c4!>)! f4 |!mf! e3 e"^dim." d2 d2 | c6 z2 :| %16
w: und ein neu- er|Früh- ling|folgt dem Win- ter|nach.|
w: grö- ßer als der|Hel- fer|ist die Not ja|nicht!|
!f!"^Tutti"!<(! c4 d2!<)! c2 |!>(! !^!A4 F4!>)! |!<(! G4 A3!<)! B | c6 z2 |!f!!<(! c3 c f2!<)! e2 | %21
w: In al- len|Stür- men,|in al- ler|Not|wird er dich be-|
w: E- wi- ge|Treu- e,|Ret- ter in|Not,|rett' auch uns- re|
 !^!e4 d2 g2 |[Q:1/4=72]"^rit."!ff!!>(! f4!>)! e4 | !fermata!f6 z2 |] %24
w: schir- men, der|treu- e|Gott!|
w: See- le, du|treu- er|Gott!|
V:2
 F3 F F2 F2 | F4 C4 | E4 F3 G | A6 x2 | F3 F F2 E2 | F4 F4 | F3 F E2 C2 | C6 x2 |: G4 G2 F2 | %9
 E6 x2 | A3 B A2 G2 | F6 x2 | D3 F F2 F2 | E4 A4 | G3 G G2 F2 | E6 x2 :| F4 F2 F2 | F4 F4 | %18
 E4 F3 G | A6 x2 | F3 F F2 G2 | G4 F2 B2 | A4 G4 | A6 x2 |] %24
V:3
!p!!<(! A,3 A, B,2!<)! A,2 |!>(! C4 A,4!>)! |!mf!!<(! C4 C3!<)! C | C6 z2 | %4
!mf! A,3!<(! A, B,2 G,2!<)! |!>(! C4 D4!>)! |!f! D3 D C2 B,2 |!>(! A,6!>)! z2 |: %8
!f!!<(! C4 C2!<)! C2 | !^!C6 z2 |!f! !^!C3 C C2 C2 | !^!C6 z2 |!mf! F3!<(! D =B,2!<)! B,2 | %13
!f!!>(! C4!>)! C4 |!mf! C3 C"^dim." =B,2 B,2 | C6 z2 :|!f!!<(! A,4 B,2!<)! A,2 |!>(! !^!C4 C4!>)! | %18
!<(! C4 C3!<)! C | C6 z2 |!f!!<(! A,3 A, C2!<)! ^C2 | !^!^C4 D2 D2 |!ff!!>(! =C4!>)! C4 | %23
 !fermata!C6 z2 |] %24
V:4
 F,3 F, F,2 F,2 | F,4 F,4 | C,4 C,3 C, | F,6 x2 | F,3 F, F,2 F,2 | F,4 D,4 | B,,3 B,, C,2 C,2 | %7
 F,6 x2 |: C,4 C,2 C,2 | C6 x2 | F,3 F, F,2 F,2 | F,6 x2 | G,3 G, G,2 ^G,2 | A,4 F,4 | %14
 G,3 G, G,2 G,2 | C,6 x2 :| F,4 F,2 F,2 | F,4 A,4 | B,4 A,3 G, | F,6 x2 | F,3 F, A,2 A,2 | %21
 B,4 B,2 G,2 | C4 C,4 | F,6 x2 |] %24

